src/icons/editor/glyph/CellMergeIcon.svg

<svg width="24" height="24" viewBox="0 0 24 24" fill="none" xmlns="http://www.w3.org/2000/svg">
<path fill-rule="evenodd" clip-rule="evenodd" d="M4 3H10V5L4 5L4 19H10V21H4C2.89543 21 2 20.1046 2 19V5C2 3.89543 2.89543 3 4 3ZM20 19H14V21H20C21.1046 21 22 20.1046 22 19V5C22 3.89543 21.1046 3 20 3H14V5L20 5V19ZM10.9497 12L10.9497 12L9.53549 10.5858L9.53546 10.5858L7.41416 8.46451L5.99995 9.87872L8.12125 12L5.99996 14.1213L7.41417 15.5355L9.53546 13.4142L9.53548 13.4143L10.9497 12L10.9497 12ZM13 12L13 12L14.4142 10.5858L14.4142 10.5858L16.5355 8.46451L17.9498 9.87872L15.8285 12L17.9497 14.1213L16.5355 15.5355L14.4142 13.4142L14.4142 13.4143L13 12L13 12Z" fill="currentColor"/>
</svg>

<svg xmlns="http://www.w3.org/2000/svg" width="24" height="24" fill="currentColor" viewBox="0 0 24 24">
  <path fill-rule="evenodd" d="M4 3h6v2H4v14h6v2H4a2 2 0 0 1-2-2V5a2 2 0 0 1 2-2Zm16 16h-6v2h6a2 2 0 0 0 2-2V5a2 2 0 0 0-2-2h-6v2h6v14Zm-9.05-7-1.415-1.414-2.12-2.121L6 9.879 8.121 12 6 14.121l1.414 1.415 2.121-2.122L10.95 12ZM13 12l1.414-1.414 2.121-2.121 1.415 1.414L15.829 12l2.12 2.121-1.414 1.415-2.12-2.122L13 12Z" clip-rule="evenodd"/>
</svg>
